X:804
T:Playing (in) the Field
C:"Entree" by G.F.  Handel
R:Reel
S:Colin Hume's website,  colinhume.com  - chords can also be printed below the stave.
Q:1/2=108
M:4/4
L:1/4
K:Cm
%%center Play ABA x 4
P:A
"Cm"gG g2 | "G7"fG f2 | "Cm"ed/e/ "Fm"f/e/d/c/ | "G7"=Bc dG | "Cm"cG AG |
"Fm"FE DC | "Fm"FE/D/ "Cm"EC | "Fm"EF "G7"G2 | "Cm"cG "Fm"FE | "G7"F/E/D/E/ "Cm"C2 |
P:B
"Eb"EG B2 | GB e2 | "Eb"Be g2 | "Bb"a/g/f/e/ dB | "Eb"e/f/g "Bb"gf | "Eb"ed eB |
"Eb"G/A/B "Bb"BA | "Eb"GF GE | "Eb"e/f/g gf | "Bb7"f/g/a ag/f/ | "Eb"g/a/b g/a/b | "Bb7"Bd "Eb"e2 |]

